rospo-icon-theme-classic-common/symbolic/status/security-medium-symbolic.svg

<svg height="16" width="16" xmlns="http://www.w3.org/2000/svg"><path d="m8 0-6 2v7c0 2.07 1.5795 3.489 2.9395 4.439s3.0605 1.561 3.0605 1.561 1.7005-.611 3.061-1.561c1.36-.96 2.939-2.399 2.939-4.439v-7zm-1 3h2v6h-2zm0 7h2v2h-2z" fill="#5294e2"/></svg>

<svg xmlns="http://www.w3.org/2000/svg" width="16" height="16" version="1.1">
 <path style="fill:#5294e2" class="warning" d="M 8 0 L 2 2 L 2 9 C 2 11.07 3.5795 12.489 4.9395 13.439 C 6.2995 14.389 8 15 8 15 C 8 15 9.7005 14.389 11.061 13.439 C 12.421 12.479 14 11.04 14 9 L 14 2 L 8 0 z M 7 3 L 9 3 L 9 9 L 7 9 L 7 3 z M 7 10 L 9 10 L 9 12 L 7 12 L 7 10 z"/>
</svg>
